dist/img/svg/user-experience-icon.svg

<svg width="60" height="60" viewBox="0 0 60 60" fill="none" xmlns="http://www.w3.org/2000/svg">
<g clip-path="url(#clip0)">
<path d="M56.0629 30.0075C57.3254 27.4907 58.3192 24.9606 59.009 22.4676C61.172 14.6563 60.1246 8.11534 56.0592 4.05039C51.9943 -0.0145541 45.4533 -1.06238 37.642 1.10056C35.149 1.79041 32.6189 2.78467 30.1021 4.04673C26.971 2.47523 23.8353 1.32532 20.8141 0.662937C13.7966 -0.875151 7.88179 0.327854 4.15971 4.05039C1.77063 6.43946 0.38498 9.79625 0.153351 13.7582C-0.0549319 17.3223 0.66742 21.4125 2.24167 25.6257C0.948945 26.6479 0.117188 28.2281 0.117188 30.0001C0.117188 31.7721 0.948945 33.3523 2.24167 34.3745C0.66742 38.5878 -0.0549319 42.6784 0.153351 46.2421C0.385437 50.204 1.77063 53.5608 4.15971 55.9499C6.82756 58.6182 10.5707 59.9938 15.092 59.9938C15.9998 59.9938 16.9391 59.9384 17.9077 59.8267C21.7846 59.3794 25.9269 58.0588 30.1081 55.9563C32.623 57.2174 35.1513 58.2103 37.642 58.8997C40.3002 59.6358 42.8115 60.0002 45.1283 60.0002C49.6185 60.0002 53.3776 58.6314 56.0592 55.9499C59.7817 52.2278 60.9847 46.313 59.4467 39.295C58.7843 36.2742 57.6344 33.1386 56.0629 30.0075ZM38.1116 2.79749C45.2853 0.811252 51.217 1.6984 54.8141 5.29551C58.4112 8.89262 59.2983 14.8243 57.3121 21.998C56.7559 24.0075 55.9919 26.0446 55.0416 28.0798C53.3387 25.0261 51.2444 22.0002 48.8178 19.114C49.5612 18.1665 50.0062 16.974 50.0062 15.679C50.0062 14.427 49.6011 13.2441 48.8339 12.2581L47.4441 13.3389C47.9687 14.0132 48.2456 14.8225 48.2456 15.679C48.2456 17.7829 46.534 19.494 44.4306 19.494C42.3272 19.494 40.6156 17.7829 40.6156 15.679C40.6156 13.5751 42.3272 11.864 44.4306 11.864C45.1173 11.864 45.7906 12.048 46.377 12.3968L47.277 10.8834C46.4182 10.373 45.434 10.103 44.4306 10.103C43.1356 10.103 41.9431 10.5484 40.996 11.2918C38.1093 8.86516 35.0835 6.77088 32.0298 5.06754C34.065 4.11768 36.1021 3.35367 38.1116 2.79749ZM5.40482 5.29551C10.1651 0.535221 18.8938 0.712833 28.1818 5.06251C23.6477 7.5912 19.2005 10.9773 15.1433 15.034C12.1349 18.0424 9.48717 21.2738 7.26289 24.647C6.76164 24.5015 6.23429 24.4241 5.69322 24.4241C5.02717 24.4241 4.38859 24.5422 3.79578 24.7569C0.74524 16.4425 1.31653 9.38334 5.40482 5.29551ZM15.1378 58.2268C11.1548 58.2268 7.76872 57.0686 5.40437 54.7047C1.31653 50.6169 0.744783 43.5582 3.79578 35.2434C4.38859 35.4585 5.02717 35.5762 5.69322 35.5762C6.2375 35.5762 6.76301 35.496 7.26106 35.35C9.48534 38.7247 12.134 41.9569 15.1433 44.9663C19.1991 49.0216 23.6449 52.4068 28.1777 54.9355C23.5218 57.1144 19.0425 58.2272 15.1378 58.2268ZM30.1044 53.9774C25.3487 51.4793 20.6525 47.9848 16.3884 43.7212C13.5233 40.8555 10.996 37.7849 8.86507 34.5823C10.3162 33.5748 11.2688 31.8971 11.2688 30.0006C11.2688 29.8353 11.2619 29.6682 11.2473 29.5039L9.49312 29.6591C9.50319 29.7717 9.50822 29.8861 9.50822 30.0001C9.50822 32.104 7.79664 33.8151 5.69322 33.8151C3.58979 33.8151 1.87821 32.104 1.87821 30.0001C1.87821 27.8962 3.58979 26.1851 5.69322 26.1851C7.14616 26.1851 8.45399 26.9926 9.10585 28.2922L10.6796 27.503C10.2493 26.6447 9.62221 25.9338 8.86873 25.4115C10.9992 22.2117 13.5251 19.1424 16.3884 16.2791C20.6534 12.0141 25.3515 8.51863 30.1085 6.02061C33.3463 7.72486 36.6221 9.92213 39.7957 12.5831C39.2016 13.4693 38.8546 14.5341 38.8546 15.679C38.8546 18.7533 41.3563 21.2545 44.4306 21.2545C45.5755 21.2545 46.6402 20.9076 47.5265 20.3134C50.1875 23.4871 52.3843 26.7633 54.0885 30.0006C51.5905 34.7577 48.095 39.4557 43.8305 43.7212C43.3613 44.1899 42.8793 44.6559 42.3922 45.1123C41.4204 44.2902 40.1656 43.793 38.796 43.793C37.544 43.793 36.3611 44.1986 35.3751 44.9654L36.4564 46.3551C37.1302 45.831 37.9395 45.554 38.796 45.5536C40.8994 45.5536 42.611 47.2652 42.611 49.3686C42.611 51.4725 40.8994 53.1836 38.796 53.1836C36.6926 53.1836 34.981 51.4725 34.981 49.3686C34.981 48.6819 35.165 48.009 35.5138 47.4226L34.0005 46.5222C33.49 47.381 33.22 48.3652 33.22 49.3686C33.22 50.2521 33.4273 51.087 33.7945 51.83C32.5608 52.6173 31.3285 53.3333 30.1044 53.9774ZM54.8141 54.7047C51.217 58.3023 45.2853 59.189 38.1116 57.2032C36.1034 56.647 34.0682 55.8839 32.0344 54.9345C32.9618 54.4164 33.8897 53.8602 34.8148 53.2678C35.8278 54.3015 37.2378 54.9446 38.796 54.9446C41.8703 54.9446 44.372 52.4434 44.372 49.369C44.372 48.2983 44.0681 47.2981 43.543 46.4476C44.0621 45.9619 44.5757 45.4657 45.0751 44.9663C49.1323 40.9086 52.5179 36.4615 55.0471 31.9273C59.3968 41.2158 59.5744 49.9445 54.8141 54.7047Z" fill="#2F3235"/>
<path d="M44.5475 39.0977H42.7283V34.6615C42.7283 32.6995 41.4095 30.9572 39.5212 30.4244L38.863 30.239L38.3851 31.9337L39.0433 32.1195C40.1758 32.439 40.9673 33.4841 40.9673 34.6615V39.0977H37.7977V36.6912H36.0372V39.0977H28.1133V40.8582H44.5475V39.0977Z" fill="#2F3235"/>
<path d="M33.022 30.4207L36.6915 31.4561L37.1698 29.761L33.5732 28.7466V26.4084C35.2015 25.2978 36.2731 23.4288 36.2731 21.3135V18.7308C36.2731 15.3328 33.5086 12.5679 30.1102 12.5679C26.7122 12.5679 23.9473 15.3328 23.9473 18.7308V21.3135C23.9473 23.4288 25.019 25.2978 26.6472 26.4084V28.7466L20.6981 30.4243C18.8098 30.9572 17.491 32.6994 17.491 34.6614V39.0976H15.6719V40.8582H26.3538V39.0976H24.1822V36.6911H22.4216V39.0976H19.252V34.6614C19.252 33.484 20.0435 32.439 21.176 32.1194L27.1984 30.4211C27.9399 31.2323 28.9873 31.7024 30.1102 31.7024C31.2331 31.7024 32.2809 31.2318 33.022 30.4207ZM30.1102 14.3289C32.5373 14.3289 34.5121 16.3037 34.5121 18.7312V19.7117L32.6613 17.2636H25.9606C26.5662 15.5557 28.1972 14.3289 30.1102 14.3289ZM25.7084 21.3135V19.0246H31.7852L34.366 22.4377C33.8675 24.3223 32.1486 25.7153 30.1102 25.7153C27.6831 25.7153 25.7084 23.7405 25.7084 21.3135ZM28.4082 29.1289V27.2351C28.9489 27.3912 29.5197 27.4763 30.1102 27.4763C30.7007 27.4763 31.2711 27.3912 31.8122 27.2351V29.1289C31.3984 29.6411 30.7785 29.9414 30.1102 29.9414C29.4419 29.9414 28.8216 29.6411 28.4082 29.1289Z" fill="#2F3235"/>
<path d="M34.7595 34.5699L32.2793 33.8704L32.7577 32.1758L35.2374 32.8752L34.7595 34.5699Z" fill="#2F3235"/>
<path d="M38.6252 33.828L38.1468 35.5227L36.4521 35.0447L36.9305 33.3501L38.6252 33.828Z" fill="#2F3235"/>
<path d="M43.5498 14.7986H45.3104V16.5596H43.5498V14.7986Z" fill="#2F3235"/>
<path d="M37.916 48.4888H39.6766V50.2493H37.916V48.4888Z" fill="#2F3235"/>
<path d="M4.8125 29.1196H6.57352V30.8802H4.8125V29.1196Z" fill="#2F3235"/>
</g>
<defs>
<clipPath id="clip0">
<rect width="60" height="60" fill="white"/>
</clipPath>
</defs>
</svg>

<svg width="60" height="60" viewBox="0 0 60 60" fill="none" xmlns="http://www.w3.org/2000/svg"><g clip-path="url(#clip0)" fill="#2F3235"><path d="M56.063 30.008c1.262-2.517 2.256-5.047 2.946-7.54 2.163-7.812 1.116-14.353-2.95-18.418C51.994-.015 45.453-1.062 37.642 1.1c-2.493.69-5.023 1.685-7.54 2.947-3.131-1.572-6.267-2.722-9.288-3.384C13.797-.875 7.882.328 4.16 4.05 1.77 6.44.385 9.796.153 13.758c-.208 3.564.514 7.655 2.089 11.868a5.567 5.567 0 000 8.748C.667 38.588-.055 42.678.153 46.242c.232 3.962 1.618 7.319 4.007 9.708 2.668 2.668 6.41 4.044 10.932 4.044.908 0 1.847-.056 2.816-.167 3.877-.448 8.019-1.768 12.2-3.87 2.515 1.26 5.043 2.253 7.534 2.943 2.658.736 5.17 1.1 7.486 1.1 4.49 0 8.25-1.369 10.931-4.05 3.723-3.722 4.926-9.637 3.388-16.655-.663-3.02-1.813-6.156-3.384-9.288zM38.112 2.797c7.173-1.987 13.105-1.1 16.702 2.498 3.597 3.597 4.484 9.528 2.498 16.702a39.052 39.052 0 01-2.27 6.082c-1.703-3.054-3.798-6.08-6.224-8.966a5.547 5.547 0 001.188-3.435 5.52 5.52 0 00-1.172-3.42l-1.39 1.08c.525.674.802 1.483.802 2.34a3.82 3.82 0 01-3.815 3.815 3.82 3.82 0 01-3.815-3.815 3.82 3.82 0 015.761-3.282l.9-1.514a5.573 5.573 0 00-6.281.409c-2.887-2.427-5.913-4.521-8.966-6.224a39.091 39.091 0 016.082-2.27zM5.405 5.295c4.76-4.76 13.489-4.583 22.777-.233-4.534 2.528-8.981 5.914-13.039 9.971-3.008 3.008-5.656 6.24-7.88 9.613a5.626 5.626 0 00-3.467.11c-3.05-8.314-2.48-15.373 1.609-19.46zm9.733 52.93c-3.983 0-7.37-1.157-9.734-3.521-4.087-4.088-4.66-11.147-1.608-19.462a5.55 5.55 0 003.465.107c2.224 3.375 4.873 6.607 7.882 9.616 4.056 4.056 8.502 7.44 13.035 9.97-4.656 2.178-9.136 3.291-13.04 3.29zm14.966-4.249c-4.755-2.498-9.451-5.992-13.716-10.256-2.865-2.865-5.392-5.936-7.523-9.139a5.572 5.572 0 002.382-5.078l-1.754.155a3.82 3.82 0 01-3.8 4.156A3.82 3.82 0 011.878 30a3.82 3.82 0 013.815-3.815 3.8 3.8 0 013.413 2.107l1.574-.789a5.582 5.582 0 00-1.811-2.091c2.13-3.2 4.656-6.27 7.52-9.133 4.264-4.265 8.963-7.76 13.72-10.258 3.237 1.704 6.513 3.901 9.687 6.562a5.541 5.541 0 00-.941 3.096 5.582 5.582 0 005.576 5.575 5.54 5.54 0 003.096-.94c2.66 3.173 4.857 6.45 6.562 9.687-2.498 4.757-5.994 9.455-10.258 13.72-.47.469-.952.935-1.439 1.391a5.55 5.55 0 00-3.596-1.319 5.523 5.523 0 00-3.42 1.172l1.08 1.39a3.78 3.78 0 012.34-.801 3.82 3.82 0 013.815 3.815 3.82 3.82 0 01-3.815 3.815 3.82 3.82 0 01-3.282-5.761l-1.514-.9a5.572 5.572 0 00-.206 5.307 51.097 51.097 0 01-3.69 2.147zm24.71.728c-3.597 3.597-9.529 4.484-16.702 2.498a39.08 39.08 0 01-6.078-2.269 53.973 53.973 0 002.78-1.666 5.56 5.56 0 003.982 1.677 5.582 5.582 0 005.576-5.576c0-1.07-.304-2.07-.829-2.921a61.41 61.41 0 001.532-1.482c4.057-4.057 7.443-8.505 9.972-13.039 4.35 9.289 4.527 18.017-.233 22.778z"/><path d="M44.547 39.098h-1.819V34.66a4.419 4.419 0 00-3.207-4.237l-.658-.185-.478 1.695.658.186a2.65 2.65 0 011.924 2.541v4.437h-3.17V36.69h-1.76v2.407h-7.924v1.76h16.434v-1.76z"/><path d="M33.022 30.42l3.67 1.036.478-1.695-3.597-1.014v-2.339a6.161 6.161 0 002.7-5.095v-2.582a6.17 6.17 0 00-6.163-6.163 6.17 6.17 0 00-6.163 6.163v2.582a6.162 6.162 0 002.7 5.095v2.339l-5.949 1.677a4.419 4.419 0 00-3.207 4.237v4.437h-1.82v1.76h10.683v-1.76h-2.172V36.69h-1.76v2.407h-3.17V34.66c0-1.177.792-2.222 1.924-2.542l6.022-1.698a3.932 3.932 0 002.912 1.281c1.123 0 2.17-.47 2.912-1.281zM30.11 14.33a4.407 4.407 0 014.402 4.402v.98l-1.85-2.447H25.96a4.409 4.409 0 014.15-2.935zm-4.402 6.985v-2.29h6.077l2.581 3.414a4.41 4.41 0 01-4.256 3.277 4.407 4.407 0 01-4.402-4.401zm2.7 7.815v-1.894a6.127 6.127 0 003.404 0v1.894a2.18 2.18 0 01-1.702.812 2.18 2.18 0 01-1.702-.812z"/><path d="M34.76 34.57l-2.48-.7.478-1.694 2.48.7-.478 1.694zm3.865-.742l-.478 1.695-1.695-.478.479-1.695 1.694.478zm4.925-19.029h1.76v1.76h-1.76V14.8zm-5.634 33.69h1.76v1.76h-1.76v-1.76zM4.813 29.12h1.76v1.76h-1.76v-1.76z"/></g><defs><clipPath id="clip0"><path fill="#fff" d="M0 0h60v60H0z"/></clipPath></defs></svg>
